X:76
T:Cave Run
C:Mark Royal
A:The Comando Sessions III
N:Transcribed by Mike Stangeland
R:bluegrass
L:1/8
Q:1/4=235
M:4/4
K:Bb
[g8B8D8G,8] | z8 | z2 DD FD _GD | "Gm"[GG,][GG,] [GG,]A BA Bc | dd dd dd dd | 
BA GB AG FD | GG DD FD _GD | GG AA BB cc | d2 c2 B2 A2 | "D"[FC][A_GD] [AGD][AGD] [AGD][AGD] [AGD][AGD] | 
[A2_G2C2] DD FD GD | "Gm"[GG,][GG,] [GG,]A BA Bc | {c}dd dd dd dd | BA GB AG FD | 
GG DD FD _GD | GG GD FD F=E | "D"D2 DD CG, B,G, | "Gm"B,G, G,G, G,G, G,B, | G,2 D2 DD DD | 
"F"[AFC][AFC] [AFC][AFC] [AFC][AFC] [AFC][AFC] | BA GB AG BA | "Gm"[_G_D][=G=D] [GD][GD] [GD][GD] [GD][GD] | 
[GD][GD] [GD][GD] [GD][GD] [DG,][=E=B,] | "F"[AFC][AFC] [AFC][AFC] [AFC][AFC] [AFC][AFC] | 
BA GB AG BA | "D"[FC][A_GD] [AGD][AGD] [AGD][AGD] [AGD][AGD] | [A2_G2D2] DD FD GD | 
"Gm"[GG,][GG,] BA Bc cA | {c}dd dd dd dd | BA GB AG FD | GG DD FD _GD | GG GD FD F=E | 
"D"D2 DD CG, B,G, | "G"B,G, G,G, G,G, G,B, | G,8 ||


